dist/icons/svgs/list-outline.svg

<svg xmlns="http://www.w3.org/2000/svg" width="24" height="24" fill="currentcolor" class="icon-list-outline" viewBox="0 0 24 24">
  <path d="M3.5625 3.875H5.4375C5.94531 3.875 6.375 4.30469 6.375 4.8125V6.6875C6.375 7.23438 5.94531 7.625 5.4375 7.625H3.5625C3.01562 7.625 2.625 7.23438 2.625 6.6875V4.8125C2.625 4.30469 3.01562 3.875 3.5625 3.875ZM9.1875 4.8125H21.0625C21.5703 4.8125 22 5.24219 22 5.75C22 6.29688 21.5703 6.6875 21.0625 6.6875H9.1875C8.64062 6.6875 8.25 6.29688 8.25 5.75C8.25 5.24219 8.64062 4.8125 9.1875 4.8125ZM9.1875 11.0625H21.0625C21.5703 11.0625 22 11.4922 22 12C22 12.5469 21.5703 12.9375 21.0625 12.9375H9.1875C8.64062 12.9375 8.25 12.5469 8.25 12C8.25 11.4922 8.64062 11.0625 9.1875 11.0625ZM9.1875 17.3125H21.0625C21.5703 17.3125 22 17.7422 22 18.25C22 18.7969 21.5703 19.1875 21.0625 19.1875H9.1875C8.64062 19.1875 8.25 18.7969 8.25 18.25C8.25 17.7422 8.64062 17.3125 9.1875 17.3125ZM2.625 11.0625C2.625 10.5547 3.01562 10.125 3.5625 10.125H5.4375C5.94531 10.125 6.375 10.5547 6.375 11.0625V12.9375C6.375 13.4844 5.94531 13.875 5.4375 13.875H3.5625C3.01562 13.875 2.625 13.4844 2.625 12.9375V11.0625ZM3.5625 16.375H5.4375C5.94531 16.375 6.375 16.8047 6.375 17.3125V19.1875C6.375 19.7344 5.94531 20.125 5.4375 20.125H3.5625C3.01562 20.125 2.625 19.7344 2.625 19.1875V17.3125C2.625 16.8047 3.01562 16.375 3.5625 16.375Z"/>
</svg>

<svg xmlns="http://www.w3.org/2000/svg" width="24" height="24" fill="currentColor" class="icon-list-outline" viewBox="0 0 24 24">
  <path d="M3.563 3.875h1.874a.95.95 0 0 1 .938.938v1.875c0 .546-.43.937-.937.937H3.563c-.547 0-.938-.39-.938-.937V4.813c0-.508.39-.938.938-.938m5.624.938h11.876A.95.95 0 0 1 22 5.75c0 .547-.43.938-.937.938H9.188c-.547 0-.938-.391-.938-.938 0-.508.39-.937.938-.937m0 6.25h11.876A.95.95 0 0 1 22 12c0 .547-.43.938-.937.938H9.188c-.547 0-.938-.391-.938-.938 0-.508.39-.937.938-.937m0 6.25h11.876a.95.95 0 0 1 .937.937c0 .547-.43.938-.937.938H9.188c-.547 0-.938-.391-.938-.938 0-.508.39-.937.938-.937m-6.562-6.25c0-.508.39-.938.938-.938h1.874a.95.95 0 0 1 .938.938v1.874c0 .547-.43.938-.937.938H3.563c-.547 0-.938-.39-.938-.937zm.938 5.312h1.874a.95.95 0 0 1 .938.938v1.875c0 .546-.43.937-.937.937H3.563c-.547 0-.938-.39-.938-.937v-1.875c0-.508.39-.938.938-.938"/>
</svg>
